X: 33244
T: Pull The Knife And Stick It Again
R: jig
M: 6/8
K: Edorian
|:E2E GFE|DBE DBD|~E3 GFE|AB^G AFD|
~E3 GFE|DBE DEF|G2E FED|BED E3:|
|:edB BAF|EDB d2e|edB BAF|ABc def|
edB BAF|EDB DEF|{A}GFE FED|BED E3:|

